local/share/icons/dracula-icons-main/scalable/apps/rygel.svg

<?xml version="1.0" encoding="UTF-8"?>
<svg xmlns="http://www.w3.org/2000/svg" xmlns:xlink="http://www.w3.org/1999/xlink" width="64" height="64" viewBox="0 0 64 64">
<path fill-rule="nonzero" fill="rgb(55.686275%, 1.568627%, 1.568627%)" fill-opacity="1" d="M 32 5 C 46.910156 5 59 17.089844 59 32 C 59 46.910156 46.910156 59 32 59 C 17.089844 59 5 46.910156 5 32 C 5 17.089844 17.089844 5 32 5 Z M 32 5 "/>
<path fill-rule="nonzero" fill="rgb(100%, 100%, 100%)" fill-opacity="1" d="M 26.066406 5.65625 C 25.21875 5.84375 24.382812 6.074219 23.566406 6.339844 L 26.710938 18.082031 C 27 19.15625 27.164062 19.746094 25.90625 21.242188 C 25.691406 21.5 25.484375 21.753906 25.316406 22.039062 C 24.65625 23.191406 24.429688 24.59375 24.796875 25.976562 C 25.539062 28.742188 28.386719 30.382812 31.152344 29.640625 C 33.917969 28.902344 35.5625 26.058594 34.820312 23.292969 C 34.449219 21.910156 33.550781 20.804688 32.402344 20.140625 C 32.113281 19.976562 31.804688 19.863281 31.492188 19.746094 C 29.65625 19.078125 29.503906 18.484375 29.214844 17.410156 Z M 57.757812 23.855469 L 45.886719 27.039062 C 44.8125 27.328125 44.226562 27.492188 42.726562 26.234375 C 42.472656 26.019531 42.214844 25.808594 41.929688 25.644531 C 40.78125 24.980469 39.378906 24.757812 37.996094 25.125 C 35.230469 25.867188 33.585938 28.710938 34.328125 31.476562 C 35.070312 34.242188 37.914062 35.886719 40.679688 35.144531 C 42.0625 34.773438 43.160156 33.878906 43.824219 32.726562 C 43.992188 32.441406 44.109375 32.132812 44.222656 31.820312 C 44.894531 29.980469 45.484375 29.832031 46.558594 29.542969 L 58.410156 26.367188 C 58.234375 25.515625 58.015625 24.675781 57.757812 23.855469 Z M 24.003906 28.984375 C 23.660156 29.003906 23.3125 29.058594 22.964844 29.152344 C 21.582031 29.523438 20.480469 30.417969 19.816406 31.566406 C 19.652344 31.855469 19.535156 32.167969 19.421875 32.476562 C 18.75 34.316406 18.160156 34.464844 17.085938 34.753906 L 5.632812 37.824219 C 5.816406 38.675781 6.039062 39.511719 6.304688 40.328125 L 17.757812 37.257812 C 18.832031 36.972656 19.417969 36.808594 20.917969 38.0625 C 21.171875 38.277344 21.425781 38.488281 21.714844 38.652344 C 22.863281 39.316406 24.265625 39.539062 25.648438 39.167969 C 28.417969 38.429688 30.058594 35.585938 29.316406 32.820312 C 28.667969 30.398438 26.414062 28.839844 24.003906 28.984375 Z M 33.53125 34.480469 C 33.1875 34.503906 32.835938 34.558594 32.492188 34.652344 C 29.722656 35.394531 28.082031 38.238281 28.824219 41.003906 C 29.195312 42.386719 30.09375 43.488281 31.242188 44.152344 C 31.53125 44.316406 31.835938 44.433594 32.148438 44.546875 C 33.988281 45.21875 34.140625 45.8125 34.429688 46.886719 L 37.523438 58.4375 C 38.378906 58.261719 39.214844 58.046875 40.035156 57.792969 L 36.933594 46.214844 C 36.648438 45.140625 36.480469 44.550781 37.738281 43.054688 C 37.953125 42.796875 38.160156 42.542969 38.328125 42.257812 C 38.992188 41.105469 39.214844 39.703125 38.84375 38.320312 C 38.195312 35.898438 35.9375 34.339844 33.53125 34.484375 Z M 33.53125 34.480469 "/>
</svg>

<?xml version="1.0" encoding="UTF-8"?>
<svg width="64" height="64" version="1.1" viewBox="0 0 64 64" xmlns="http://www.w3.org/2000/svg" xmlns:cc="http://creativecommons.org/ns#" xmlns:dc="http://purl.org/dc/elements/1.1/" xmlns:rdf="http://www.w3.org/1999/02/22-rdf-syntax-ns#">
 <metadata>
  <rdf:RDF>
   <cc:Work rdf:about="">
    <dc:format>image/svg+xml</dc:format>
    <dc:type rdf:resource="http://purl.org/dc/dcmitype/StillImage"/>
    <dc:title/>
   </cc:Work>
  </rdf:RDF>
 </metadata>
 <rect x="5" y="5" width="54" height="54" rx="27" ry="27" fill="#8e0404" stroke-width="2.614"/>
 <path d="m26.066 5.6562c-0.84876 0.189-1.6819 0.41718-2.498 0.68359l3.1445 11.742c0.28789 1.0745 0.45054 1.6635-0.80664 3.1621-0.2135 0.2545-0.42199 0.50952-0.58789 0.79688-0.66362 1.1495-0.89018 2.5521-0.51953 3.9355 0.74132 2.7667 3.587 4.4074 6.3535 3.666 2.7667-0.74132 4.4092-3.5831 3.668-6.3496-0.37065-1.3832-1.2686-2.4867-2.418-3.1504-0.28736-0.1659-0.59605-0.28088-0.9082-0.39453-1.8381-0.66921-1.9895-1.2615-2.2773-2.3359l-3.1504-11.756zm31.693 18.201-11.871 3.1816c-1.0745 0.28789-1.6616 0.4525-3.1602-0.80469-0.2545-0.2135-0.51148-0.42394-0.79883-0.58984-1.1495-0.66362-2.5502-0.88823-3.9336-0.51758-2.7667 0.74132-4.4093 3.5831-3.668 6.3496 0.74132 2.7667 3.5851 4.4093 6.3516 3.668 1.3832-0.37065 2.483-1.2665 3.1465-2.416 0.1659-0.28736 0.28479-0.59606 0.39844-0.9082 0.66921-1.8381 1.2596-1.9894 2.334-2.2773l11.854-3.1758c-0.17948-0.85194-0.39504-1.69-0.65234-2.5098zm-33.756 5.127c-0.34336 0.020739-0.69192 0.075475-1.0371 0.16797-1.3832 0.37066-2.485 1.2665-3.1484 2.416-0.1659 0.28736-0.28283 0.59801-0.39648 0.91016-0.6692 1.8381-1.2615 1.9874-2.3359 2.2754l-11.453 3.0703c0.1858 0.85104 0.40831 1.6874 0.67188 2.5059l11.453-3.0703c1.0745-0.28789 1.6616-0.45249 3.1602 0.80469 0.2545 0.2135 0.50951 0.42394 0.79688 0.58984 1.1495 0.66363 2.5521 0.88628 3.9355 0.51562 2.7667-0.74132 4.4074-3.5831 3.666-6.3496-0.64848-2.4201-2.9034-3.9795-5.3105-3.8359h-0.001953zm9.5273 5.498c-0.34398 0.02065-0.69324 0.077262-1.0391 0.16992-2.7667 0.74132-4.4074 3.5851-3.666 6.3516 0.37065 1.3832 1.2686 2.4848 2.418 3.1484 0.28736 0.1659 0.5941 0.28283 0.90625 0.39648 1.8381 0.6692 1.9914 1.2634 2.2793 2.3379l3.0957 11.551c0.85268-0.17598 1.691-0.39065 2.5117-0.64453l-3.1016-11.578c-0.28789-1.0745-0.4525-1.6635 0.80469-3.1621 0.2135-0.2545 0.42199-0.50951 0.58789-0.79688 0.66362-1.1495 0.88824-2.5521 0.51758-3.9355-0.64865-2.4208-2.9066-3.9824-5.3145-3.8379z" fill="#fff" style="paint-order:normal"/>
</svg>
